src/images/single-assets/POOL.svg

<svg width="256" height="256" viewBox="0 0 256 256" fill="none" xmlns="http://www.w3.org/2000/svg">
<g clip-path="url(#clip0_1273_2)">
<circle cx="128" cy="128" r="128" fill="#7E46F2"/>
<g filter="url(#filter0_d_1273_2)">
<path d="M133.664 41.0566C160.769 41.0566 182.742 63.4353 182.742 91.0407V119.782C182.742 147.387 160.769 169.766 133.664 169.766C129.406 169.766 125.275 169.213 121.336 168.176L121.337 171.568C121.337 191.763 105.185 208.172 85.137 208.498L84.5283 208.503V98.5383L84.5846 98.537L84.5861 91.0407C84.5861 63.4353 106.559 41.0566 133.664 41.0566ZM133.664 78.5447C126.888 78.5447 121.395 84.1393 121.395 91.0407V119.782C121.395 126.683 126.888 132.278 133.664 132.278C140.44 132.278 145.934 126.683 145.934 119.782V91.0407C145.934 84.1393 140.44 78.5447 133.664 78.5447Z" fill="white"/>
</g>
</g>
<defs>
<filter id="filter0_d_1273_2" x="84.5283" y="41.0566" width="108.214" height="177.447" filterUnits="userSpaceOnUse" color-interpolation-filters="sRGB">
<feFlood flood-opacity="0" result="BackgroundImageFix"/>
<feColorMatrix in="SourceAlpha" type="matrix" values="0 0 0 0 0 0 0 0 0 0 0 0 0 0 0 0 0 0 127 0" result="hardAlpha"/>
<feOffset dx="10" dy="10"/>
<feComposite in2="hardAlpha" operator="out"/>
<feColorMatrix type="matrix" values="0 0 0 0 0 0 0 0 0 0 0 0 0 0 0 0 0 0 0.15 0"/>
<feBlend mode="normal" in2="BackgroundImageFix" result="effect1_dropShadow_1273_2"/>
<feBlend mode="normal" in="SourceGraphic" in2="effect1_dropShadow_1273_2" result="shape"/>
</filter>
<clipPath id="clip0_1273_2">
<rect width="256" height="256" fill="white"/>
</clipPath>
</defs>
</svg>

<svg xmlns="http://www.w3.org/2000/svg" width="256" height="256" fill="none"><g clip-path="url(#a)"><circle cx="128" cy="128" r="128" fill="#7E46F2"/><g filter="url(#b)"><path fill="#fff" d="M133.664 41.057c27.105 0 49.078 22.378 49.078 49.984v28.741c0 27.605-21.973 49.984-49.078 49.984a48.4 48.4 0 0 1-12.328-1.59l.001 3.392c0 20.195-16.152 36.604-36.2 36.93l-.609.005V98.538l.057-.001.001-7.496c0-27.606 21.973-49.984 49.078-49.984m0 37.488c-6.776 0-12.269 5.594-12.269 12.496v28.741c0 6.901 5.493 12.496 12.269 12.496s12.27-5.595 12.27-12.496V91.041c0-6.902-5.494-12.496-12.27-12.496"/></g></g><defs><clipPath id="a"><path fill="#fff" d="M0 0h256v256H0z"/></clipPath><filter id="b" width="108.214" height="177.447" x="84.528" y="41.057" color-interpolation-filters="sRGB" filterUnits="userSpaceOnUse"><feFlood flood-opacity="0" result="BackgroundImageFix"/><feColorMatrix in="SourceAlpha" result="hardAlpha" values="0 0 0 0 0 0 0 0 0 0 0 0 0 0 0 0 0 0 127 0"/><feOffset dx="10" dy="10"/><feComposite in2="hardAlpha" operator="out"/><feColorMatrix values="0 0 0 0 0 0 0 0 0 0 0 0 0 0 0 0 0 0 0.15 0"/><feBlend in2="BackgroundImageFix" result="effect1_dropShadow_1273_2"/><feBlend in="SourceGraphic" in2="effect1_dropShadow_1273_2" result="shape"/></filter></defs></svg>
